public/images/facebook.svg

<!DOCTYPE svg PUBLIC "-//W3C//DTD SVG 1.1//EN" "http://www.w3.org/Graphics/SVG/1.1/DTD/svg11.dtd">
<!-- Uploaded to: SVG Repo, www.svgrepo.com, Transformed by: SVG Repo Mixer Tools -->
<svg width="800px" height="800px" viewBox="0 0 24 24" fill="none" xmlns="http://www.w3.org/2000/svg">
<g id="SVGRepo_bgCarrier" stroke-width="0"/>
<g id="SVGRepo_tracerCarrier" stroke-linecap="round" stroke-linejoin="round"/>
<g id="SVGRepo_iconCarrier"> <path fill-rule="evenodd" clip-rule="evenodd" d="M2 6C2 3.79086 3.79086 2 6 2H18C20.2091 2 22 3.79086 22 6V18C22 20.2091 20.2091 22 18 22H6C3.79086 22 2 20.2091 2 18V6ZM6 4C4.89543 4 4 4.89543 4 6V18C4 19.1046 4.89543 20 6 20H12V13H11C10.4477 13 10 12.5523 10 12C10 11.4477 10.4477 11 11 11H12V9.5C12 7.567 13.567 6 15.5 6H16.1C16.6523 6 17.1 6.44772 17.1 7C17.1 7.55228 16.6523 8 16.1 8H15.5C14.6716 8 14 8.67157 14 9.5V11H16.1C16.6523 11 17.1 11.4477 17.1 12C17.1 12.5523 16.6523 13 16.1 13H14V20H18C19.1046 20 20 19.1046 20 18V6C20 4.89543 19.1046 4 18 4H6Z" fill="#FECE27"/> </g>
</svg>

<svg xmlns="http://www.w3.org/2000/svg" width="800" height="800" fill="none" viewBox="0 0 24 24"><path fill="#FECE27" fill-rule="evenodd" d="M2 6a4 4 0 0 1 4-4h12a4 4 0 0 1 4 4v12a4 4 0 0 1-4 4H6a4 4 0 0 1-4-4zm4-2a2 2 0 0 0-2 2v12a2 2 0 0 0 2 2h6v-7h-1a1 1 0 1 1 0-2h1V9.5A3.5 3.5 0 0 1 15.5 6h.6a1 1 0 1 1 0 2h-.6A1.5 1.5 0 0 0 14 9.5V11h2.1a1 1 0 1 1 0 2H14v7h4a2 2 0 0 0 2-2V6a2 2 0 0 0-2-2z" clip-rule="evenodd"/></svg>
